X:81
T:The New Barn
R:reel
C:Paul S. Cranford
O:Cape Breton Island
S:http://www.cranfordpub.com
D:currently unrecorded
B:currently unpublished in book form
Z:psc, (re-formatted,updated 9/17/04)
N:
H:                                                        copyrights Cranford Publications, SOCAN
Q:333
L:1/8
M:C|
K:F
c2 cA G(F ~F2)|CDFG Acdf|cdcA G(F ~F2)|GEFD C2 AB|
cdcA G(F ~F2)|CDFG Acdf|cdcA' GEFA|GEFD C3||
||A|c2 cA c(f ~f2)|agfd cAGF|cdcA c(f ~f2)|agfc d2 AB|
cdcA c(f ~f2)|afgf dfcA|cFcA GEFA|GEFD C3 A|]
